!!!!SEGMENT: Wil1001d-Missa_Mente_tota-Sanctus
!!!id: Wil1001d
!!!AGN: Mass; Sanctus
!!!voices: 6
!!!OPR: Missa Mente tota
!!!COM: Adrian Willaert
!!!OTL: Sanctus
**kern	**text	**kern	**text	**kern	**text	**kern	**text	**kern	**text	**kern	**text
*part6	*part6	*part5	*part5	*part4	*part4	*part3	*part3	*part2	*part2	*part1	*part1
*staff6	*staff6	*staff5	*staff5	*staff4	*staff4	*staff3	*staff3	*staff2	*staff2	*staff1	*staff1
*I"Bassus	*	*I"Tenor II	*	*I"Tenor I	*	*I"Altus II	*	*I"Altus I	*	*I"Superius	*
*I'B	*	*I'T. II	*	*I'T. I	*	*I'A. II	*	*I'A. I	*	*I'S	*
*clefF4	*	*clefF4	*	*clefGv2	*	*clefG2	*	*clefG2	*	*clefG2	*
*k[b-]	*	*k[b-]	*	*k[b-]	*	*k[b-]	*	*k[b-]	*	*k[b-]	*
*F:	*	*F:	*	*F:	*	*F:	*	*F:	*	*F:	*
*M2/1	*	*M2/1	*	*M2/1	*	*M2/1	*	*M2/1	*	*M2/1	*
*met(C|)	*	*met(C|)	*	*met(C|)	*	*met(C|)	*	*met(C|)	*	*met(C|)	*
=1	=1	=1	=1	=1	=1	=1	=1	=1	=1	=1	=1
!!section: Sanctus
!!!OMD: Sanctus
!LO:TX:a:t=Canon&colon; bassus/tenor I at the fifth	!	!	!	!	!	!	!	!LO:TX:a:t=Canon&colon; altus I/superius at the fifth	!	!	!
1.G	San-	0r	.	0r	.	1r	.	0r	.	0r	.
.	.	.	.	.	.	[1d	San-	.	.	.	.
2F	.	.	.	.	.	.	.	.	.	.	.
=2	=2	=2	=2	=2	=2	=2	=2	=2	=2	=2	=2
1G	.	0r	.	0r	.	1d]	.	0r	.	0r	.
1A	.	.	.	.	.	1c	.	.	.	.	.
=3	=3	=3	=3	=3	=3	=3	=3	=3	=3	=3	=3
1.B-y	.	0r	.	1.d	San-	2.d	.	0r	.	0r	.
.	.	.	.	.	.	4e	.	.	.	.	.
.	.	.	.	.	.	4f	.	.	.	.	.
.	.	.	.	.	.	4g	.	.	.	.	.
2A	.	.	.	2c	.	[2f	.	.	.	.	.
=4	=4	=4	=4	=4	=4	=4	=4	=4	=4	=4	=4
2G	.	1r	.	1d	.	4f]	.	0r	.	0r	.
.	.	.	.	.	.	4e	.	.	.	.	.
2F	.	.	.	.	.	1d	.	.	.	.	.
1E	.	1G	San-	1e	.	.	.	.	.	.	.
.	.	.	.	.	.	2c#i	.	.	.	.	.
=5	=5	=5	=5	=5	=5	=5	=5	=5	=5	=5	=5
2.D	.	2.A	.	1.f	.	0d	-ctus,	0r	.	0r	.
4E	.	4G	.	.	.	.	.	.	.	.	.
2F	.	2A	.	.	.	.	.	.	.	.	.
[2G	.	[2B-y	.	2e	.	.	.	.	.	.	.
=6	=6	=6	=6	=6	=6	=6	=6	=6	=6	=6	=6
2G]	.	4B-]	.	2d	.	2r	.	0r	.	0r	.
.	.	4A	.	.	.	.	.	.	.	.	.
2C	.	1A	.	2c	.	2e	[San-	.	.	.	.
2D	.	.	.	1B-y	.	2f	.	.	.	.	.
2E	.	2G	.	.	.	2g	.	.	.	.	.
=7	=7	=7	=7	=7	=7	=7	=7	=7	=7	=7	=7
2F	.	1c	.	2.A	.	2a	.	0r	.	0r	.
1A	.	.	.	.	.	1cc	.	.	.	.	.
.	.	.	.	4B-y	.	.	.	.	.	.	.
.	.	2A	.	2c	.	.	.	.	.	.	.
2G	.	2B-y	.	[2d	.	2b-y	.	.	.	.	.
=8	=8	=8	=8	=8	=8	=8	=8	=8	=8	=8	=8
2F	.	1c	.	2d]	.	2a	.	0r	.	0r	.
2E	.	.	.	2G	.	2g	.	.	.	.	.
1D	.	1F	-ctus,	2A	.	1f	.	.	.	.	.
.	.	.	.	2B-y	.	.	.	.	.	.	.
=9	=9	=9	=9	=9	=9	=9	=9	=9	=9	=9	=9
1C	-ctus,	1G	.	2c	.	2e	.	1.g	San-	0r	.
.	.	.	.	1e	.	2.c	.	.	.	.	.
2r	.	1r	.	.	.	.	.	.	.	.	.
.	.	.	.	.	.	4B-y	.	.	.	.	.
2D	[San-	.	.	2d	.	2A	.	2f	.	.	.
=10	=10	=10	=10	=10	=10	=10	=10	=10	=10	=10	=10
2E	.	1r	.	2c	.	1G	.	1g	.	0r	.
1G	.	.	.	2B-y	.	.	.	.	.	.	.
.	.	1D	[San-	1A	.	[1d	.	1a	.	.	.
2F#i	.	.	.	.	.	.	.	.	.	.	.
=11	=11	=11	=11	=11	=11	=11	=11	=11	=11	=11	=11
1G	-ctus]	1B-y	.	1G	-ctus,	2d]	.	1.b-y	.	1.dd	San-
.	.	.	.	.	.	2.g	.	.	.	.	.
1r	.	2G	.	2r	.	.	.	.	.	.	.
.	.	.	.	.	.	4f	.	.	.	.	.
.	.	2c	.	2A	[San-	2e	.	2a	.	2cc	.
=12	=12	=12	=12	=12	=12	=12	=12	=12	=12	=12	=12
0r	.	2.B-y	.	2B-y	.	1d	-ctus,	2g	.	1dd	.
.	.	.	.	1d	.	.	.	2f	.	.	.
.	.	4A	.	.	.	.	.	.	.	.	.
.	.	2G	.	.	.	2r	.	1e	.	1ee	.
.	.	2A	.	2c#i	.	[2a	San-	.	.	.	.
=13	=13	=13	=13	=13	=13	=13	=13	=13	=13	=13	=13
0r	.	2D	.	1d	-ctus]	4a]	.	2.d	.	1.ff	.
.	.	.	.	.	.	4g	.	.	.	.	.
.	.	1d	.	.	.	4f	.	.	.	.	.
.	.	.	.	.	.	4e	.	4e	.	.	.
.	.	.	.	1r	.	2d	.	2f	.	.	.
.	.	2c	.	.	.	2e	.	[2g	.	2ee	.
=14	=14	=14	=14	=14	=14	=14	=14	=14	=14	=14	=14
0r	.	2B-y	.	0r	.	1f	.	2g]	.	2dd	.
.	.	2A	.	.	.	.	.	2c	.	2cc	.
.	.	1G	.	.	.	1B-y	.	2d	.	1b-y	.
.	.	.	.	.	.	.	.	2e	.	.	.
=15	=15	=15	=15	=15	=15	=15	=15	=15	=15	=15	=15
0r	.	2.F	.	0r	.	1c	-ctus,	2f	.	2.a	.
.	.	.	.	.	.	.	.	1a	.	.	.
.	.	4G	.	.	.	.	.	.	.	4b-y	.
.	.	2A	.	.	.	1r	.	.	.	2cc	.
.	.	[2B-y	.	.	.	.	.	2g	.	[2dd	.
=16	=16	=16	=16	=16	=16	=16	=16	=16	=16	=16	=16
0r	.	2B-]	.	0r	.	1r	.	2f	.	2dd]	.
.	.	2c	.	.	.	.	.	2e	.	2g	.
.	.	2F	.	.	.	2r	.	1d	.	2a	.
.	.	2G	.	.	.	2g	San-	.	.	2b-y	.
=17	=17	=17	=17	=17	=17	=17	=17	=17	=17	=17	=17
0r	.	2A	.	0r	.	2.e	.	1c	-ctus	2cc	.
.	.	1c	.	.	.	.	.	.	.	1ee	.
.	.	.	.	.	.	4f	.	.	.	.	.
.	.	.	.	.	.	[1g	-ctus]	2r	.	.	.
.	.	2B-y	.	.	.	.	.	2d	Do-	2dd	.
=18	=18	=18	=18	=18	=18	=18	=18	=18	=18	=18	=18
1r	.	2c	.	0r	.	1g]	.	2e	.	2cc	.
.	.	2G	.	.	.	.	.	1g	.	2b-y	.
2r	.	1d	-ctus]	.	.	1r	.	.	.	1a	.
2D	De-	.	.	.	.	.	.	2f#i	-mi-	.	.
=19	=19	=19	=19	=19	=19	=19	=19	=19	=19	=19	=19
2E	.	1r	.	0r	.	2r	.	1g	-nus,	1g	-ctus,
1G	.	.	.	.	.	1b-y	Do-	.	.	.	.
.	.	[1d	Do-	.	.	.	.	1r	.	2r	.
2F	.	.	.	.	.	2a	.	.	.	2a	[San-
=20	=20	=20	=20	=20	=20	=20	=20	=20	=20	=20	=20
1G	.	2d]	.	1r	.	2.g	.	0r	.	2b-y	.
.	.	2B-y	-mi-	.	.	.	.	.	.	1dd	.
.	.	.	.	.	.	4f	.	.	.	.	.
1A	.	1c	-nus	2r	.	1e	.	.	.	.	.
.	.	.	.	2A	Do-	.	.	.	.	2cc	.
=21	=21	=21	=21	=21	=21	=21	=21	=21	=21	=21	=21
2.G	.	1B-y	.	2B-y	.	1.g	.	0r	.	1dd	-ctus]
.	.	.	.	1d	.	.	.	.	.	.	.
4F	.	.	.	.	.	.	.	.	.	.	.
1E	.	2r	.	.	.	.	.	.	.	1r	.
.	.	2G	De-	2c	.	4f	.	.	.	.	.
.	.	.	.	.	.	4e	.	.	.	.	.
=22	=22	=22	=22	=22	=22	=22	=22	=22	=22	=22	=22
1D	-us	4A	.	1d	.	2.f	.	0r	.	0r	.
.	.	4F	.	.	.	.	.	.	.	.	.
.	.	4A	.	.	.	.	.	.	.	.	.
.	.	4B-y	.	.	.	4g	.	.	.	.	.
2r	.	2.c	.	1e	.	2a	.	.	.	.	.
2C	Sa-	.	.	.	.	2g	.	.	.	.	.
.	.	4B-y	.	.	.	.	.	.	.	.	.
=23	=23	=23	=23	=23	=23	=23	=23	=23	=23	=23	=23
2D	.	2A	.	2.d	.	1.f	.	0r	.	0r	.
2BB-y	.	2B-y	.	.	.	.	.	.	.	.	.
.	.	.	.	4c	.	.	.	.	.	.	.
2D	.	2F	.	1B-y	-mi-	.	.	.	.	.	.
2E	.	2G	.	.	.	2e	.	.	.	.	.
=24	=24	=24	=24	=24	=24	=24	=24	=24	=24	=24	=24
1F	.	1D	.	1A	-nus,	1.d	.	0r	.	0r	.
2G	.	1G	.	2r	.	.	.	.	.	.	.
2B-y	.	.	.	2G	[De-	4c	.	.	.	.	.
.	.	.	.	.	.	4B-y	.	.	.	.	.
=25	=25	=25	=25	=25	=25	=25	=25	=25	=25	=25	=25
2.A	.	2.F	.	2A	.	1c	-mi-	0r	.	0r	.
.	.	.	.	2F	.	.	.	.	.	.	.
4G	.	4E	.	.	.	.	.	.	.	.	.
4F	.	4D	.	2A	.	1d	-nus	.	.	.	.
4E	.	4C	.	.	.	.	.	.	.	.	.
[2D	.	2BB-y	.	2B-y	.	.	.	.	.	.	.
=26	=26	=26	=26	=26	=26	=26	=26	=26	=26	=26	=26
4D]	.	2F	.	1c	.	2r	.	1r	.	0r	.
4C	.	.	.	.	.	.	.	.	.	.	.
1C	.	2E	.	.	.	2G	De-	.	.	.	.
.	.	1D	-us,	2d	.	2A	.	2r	.	.	.
2BB-y	.	.	.	2f	.	2B-y	.	2d	[Do-	.	.
=27	=27	=27	=27	=27	=27	=27	=27	=27	=27	=27	=27
1.C	.	0r	.	2.e	.	1.G	.	2e	.	0r	.
.	.	.	.	.	.	.	.	1g	.	.	.
.	.	.	.	4d	.	.	.	.	.	.	.
.	.	.	.	4c	.	.	.	.	.	.	.
.	.	.	.	4B-y	.	.	.	.	.	.	.
2D	.	.	.	[2A	.	[2d	.	2f#i	.	.	.
=28	=28	=28	=28	=28	=28	=28	=28	=28	=28	=28	=28
1E	-ba-	1r	.	4A]	.	2d]	.	1g	-mi-	1r	.
.	.	.	.	4G	.	.	.	.	.	.	.
.	.	.	.	1G	.	2c#i	.	.	.	.	.
1D	-oth,	2r	.	.	.	1d	-us	1a	-nus	2r	.
.	.	[2c	[De-	2F#i	-us]	.	.	.	.	2a	Do-
=29	=29	=29	=29	=29	=29	=29	=29	=29	=29	=29	=29
0r	.	4c]	.	1.G	Sa-	0r	.	2.g	De-	2b-y	.
.	.	4B-y	.	.	.	.	.	.	.	.	.
.	.	4A	.	.	.	.	.	.	.	1dd	.
.	.	4G	.	.	.	.	.	4f	.	.	.
.	.	2B-y	.	.	.	.	.	1e	.	.	.
.	.	2c	.	2A	.	.	.	.	.	2cc	.
=30	=30	=30	=30	=30	=30	=30	=30	=30	=30	=30	=30
2r	.	1G	-us,	1B-y	-ba-	0r	.	1d	-us	1dd	-mi-
2G	[Sa-	.	.	.	.	.	.	.	.	.	.
1c	.	1r	.	1A	-oth,	.	.	2r	.	1ee	-ne
.	.	.	.	.	.	.	.	2c	Sa-	.	.
=31	=31	=31	=31	=31	=31	=31	=31	=31	=31	=31	=31
2.B-y	.	1G	De-	0r	.	2r	.	2d	.	2.dd	De-
.	.	.	.	.	.	2d	Sa-	2B-y	.	.	.
4A	.	.	.	.	.	.	.	.	.	4cc	.
4G	.	2.B-y	.	.	.	1g	.	2d	.	1b-y	.
4F	.	.	.	.	.	.	.	.	.	.	.
2G	-ba-	.	.	.	.	.	.	2e	.	.	.
.	.	4c	.	.	.	.	.	.	.	.	.
=32	=32	=32	=32	=32	=32	=32	=32	=32	=32	=32	=32
1D	-oth],	1d	.	2r	.	2f	.	1f	.	1a	-us,
.	.	.	.	2d	[Sa-	2d	.	.	.	.	.
1r	.	1G	-us]	1g	.	[1d	.	2g	.	2r	.
.	.	.	.	.	.	.	.	2b-y	.	2g	Sa-
=33	=33	=33	=33	=33	=33	=33	=33	=33	=33	=33	=33
2r	.	1r	.	2.f	.	1d]	.	2.a	.	2a	.
1D	Sa-	.	.	.	.	.	.	.	.	2f	.
.	.	.	.	4e	.	.	.	4g	.	.	.
.	.	[1F	Sa-	4d	.	2.f	.	4f	.	2a	.
.	.	.	.	4c	.	.	.	4e	.	.	.
2BB-y	.	.	.	2d	-ba-	.	.	[2d	.	2b-y	.
.	.	.	.	.	.	4g	.	.	.	.	.
=34	=34	=34	=34	=34	=34	=34	=34	=34	=34	=34	=34
2.F	.	2F]	.	1A	-oth,	2a	.	4d]	.	1cc	.
.	.	.	.	.	.	.	.	4c	.	.	.
.	.	1A	.	.	.	1f	.	1c	.	.	.
4E	.	.	.	.	.	.	.	.	.	.	.
1D	.	.	.	1r	.	.	.	.	.	2dd	.
.	.	4G	.	.	.	2d	.	2BnXi	.	2ff	.
.	.	4F	.	.	.	.	.	.	.	.	.
=35	=35	=35	=35	=35	=35	=35	=35	=35	=35	=35	=35
1C	.	2G	.	2r	.	1e	-ba-	1.c	.	2.ee	.
.	.	2c	-ba-	1A	Sa-	.	.	.	.	.	.
.	.	.	.	.	.	.	.	.	.	4dd	.
1F	.	1A	-oth,	.	.	1f	.	.	.	4cc	.
.	.	.	.	.	.	.	.	.	.	4b-y	.
.	.	.	.	2F	.	.	.	2d	.	[2a	.
=36	=36	=36	=36	=36	=36	=36	=36	=36	=36	=36	=36
1C	-ba-	1r	.	2.c	.	1g	-oth,	1e-X	.	2a]	.
.	.	.	.	.	.	.	.	.	.	1g	.
.	.	.	.	4B-y	.	.	.	.	.	.	.
1D	.	2r	.	1A	-ba-	2r	.	1d	-ba-	.	.
.	.	[2d	[Sa-	.	.	2a	[Sa-	.	.	2f#i	-ba
=37	=37	=37	=37	=37	=37	=37	=37	=37	=37	=37	=37
[0Gl	-oth.	4d]	.	[0Gl	-oth].	2b-y	.	[0d	-oth.	[0gl	oth.
.	.	4c	.	.	.	.	.	.	.	.	.
.	.	4B-y	.	.	.	1g	.	.	.	.	.
.	.	4A	.	.	.	.	.	.	.	.	.
.	.	1B-y	-ba-	.	.	.	.	.	.	.	.
.	.	.	.	.	.	4f	-ba-	.	.	.	.
.	.	.	.	.	.	4e	.	.	.	.	.
=38	=38	=38	=38	=38	=38	=38	=38	=38	=38	=38	=38
00G]	.	00B-y	-oth].	00G]	.	00d	-oth].	00d]	.	00g]	.
=39||	=39||	=39||	=39||	=39||	=39||	=39||	=39||	=39||	=39||	=39||	=39||
*M2/1	*	*M2/1	*	*M2/1	*	*M2/1	*	*M2/1	*	*M2/1	*
*met(C|)	*	*met(C|)	*	*met(C|)	*	*met(C|)	*	*met(C|)	*	*met(C|)	*
!!section: Pleni sunt
!!!OMD: Pleni sunt
!	!	!	!	!LO:TX:a:t=Canon&colon; tenor I/bassus at the fifth	!	!	!	!	!	!LO:TX:a:t=Canon&colon; superius/altus I at the fifth	!
0r	.	1.D	Ple-	0r	.	0r	.	0r	.	1.a	Ple-
.	.	2E	.	.	.	.	.	.	.	2g	.
=40	=40	=40	=40	=40	=40	=40	=40	=40	=40	=40	=40
0r	.	1F	.	0r	.	1.d	Ple-	0r	.	1a	.
.	.	1G	-ni	.	.	.	.	.	.	1b-y	-ni
.	.	.	.	.	.	2e	-ni	.	.	.	.
=41	=41	=41	=41	=41	=41	=41	=41	=41	=41	=41	=41
0r	.	1D	sunt	0r	.	2.f	sunt	1.d	Ple-	2a	sunt
.	.	.	.	.	.	.	.	.	.	1ff	cae-
.	.	.	.	.	.	4g	.	.	.	.	.
.	.	2r	.	.	.	4a	.	.	.	.	.
.	.	.	.	.	.	4b-y	.	.	.	.	.
.	.	2A	cae-	.	.	[2cc	.	2c	.	[2ee	.
=42	=42	=42	=42	=42	=42	=42	=42	=42	=42	=42	=42
0r	.	1B-y	.	0r	.	4cc]	.	1d	.	4ee]	.
.	.	.	.	.	.	4b-y	.	.	.	4dd	.
.	.	.	.	.	.	1b-y	.	.	.	1dd	.
.	.	1c	.	.	.	.	.	1e	-ni	.	.
.	.	.	.	.	.	2a	cae-	.	.	2cc	.
=43	=43	=43	=43	=43	=43	=43	=43	=43	=43	=43	=43
0r	.	1.G	-li	0r	.	4b-y	.	2d	sunt	1dd	-li
.	.	.	.	.	.	4a	.	.	.	.	.
.	.	.	.	.	.	4g	.	1b-y	cae-	.	.
.	.	.	.	.	.	4f	.	.	.	.	.
.	.	.	.	.	.	1e	.	.	.	2r	.
.	.	2A	et	.	.	.	.	[2a	.	[2cc	et
=44	=44	=44	=44	=44	=44	=44	=44	=44	=44	=44	=44
0r	.	2F	.	0r	.	1d	-li	4a]	.	2cc]	.
.	.	.	.	.	.	.	.	4g	.	.	.
.	.	2G	.	.	.	.	.	1g	.	2b-y	.
.	.	2A	.	.	.	2r	.	.	.	2cc	.
.	.	2B-y	.	.	.	[2d	[et	2f	.	2dd	.
=45	=45	=45	=45	=45	=45	=45	=45	=45	=45	=45	=45
0r	.	1G	.	0r	.	2d]	.	1g	-li	1b-y	.
.	.	.	.	.	.	2e	.	.	.	.	.
.	.	1d	ter-	.	.	2f	.	2r	.	2.a	ter-
.	.	.	.	.	.	2d	.	[2f	et	.	.
.	.	.	.	.	.	.	.	.	.	4b-y	.
=46	=46	=46	=46	=46	=46	=46	=46	=46	=46	=46	=46
0r	.	1.c	.	1.A	Ple-	1.a	.	2f]	.	4cc	.
.	.	.	.	.	.	.	.	.	.	4dd	.
.	.	.	.	.	.	.	.	2e	.	2ee	.
.	.	.	.	.	.	.	.	2f	.	2a	.
.	.	2B-y	.	2G	.	[2b-y	ter-	2g	.	[2dd	.
=47	=47	=47	=47	=47	=47	=47	=47	=47	=47	=47	=47
0r	.	1c	.	1A	.	4b-]	.	1e	.	2dd]	.
.	.	.	.	.	.	4a	.	.	.	.	.
.	.	.	.	.	.	1a	.	.	.	2cc	.
.	.	2G	.	1B-y	-ni	.	.	2.d	ter-	1dd	-ra
.	.	[2d	.	.	.	2g	.	.	.	.	.
.	.	.	.	.	.	.	.	4e	.	.	.
=48	=48	=48	=48	=48	=48	=48	=48	=48	=48	=48	=48
1.D	Ple-	4d]	.	2A	sunt	1a	-ra],	4f	.	0r	.
.	.	4c	.	.	.	.	.	4g	.	.	.
.	.	2A	.	1f	cae-	.	.	2a	.	.	.
.	.	2B-y	.	.	.	1r	.	2d	.	.	.
2C	.	2c	.	[2e	.	.	.	[2g	.	.	.
=49	=49	=49	=49	=49	=49	=49	=49	=49	=49	=49	=49
1D	.	1A	.	4e]	.	0r	.	2g]	.	0r	.
.	.	.	.	4d	.	.	.	.	.	.	.
.	.	.	.	1d	.	.	.	2f#i	.	.	.
1E	-ni	1G	-ra	.	.	.	.	1g	-ra	.	.
.	.	.	.	2c#i	.	.	.	.	.	.	.
=50	=50	=50	=50	=50	=50	=50	=50	=50	=50	=50	=50
2D	sunt	2r	.	1d	-li	0r	.	0r	.	0r	.
1B-y	cae-	2G	[et	.	.	.	.	.	.	.	.
.	.	2D	.	2r	.	.	.	.	.	.	.
[2A	.	[2F	.	[2c	et	.	.	.	.	.	.
=51	=51	=51	=51	=51	=51	=51	=51	=51	=51	=51	=51
4A]	.	2F]	.	2c]	.	0r	.	0r	.	0r	.
4G	.	.	.	.	.	.	.	.	.	.	.
1G	.	2G	.	2B-y	.	.	.	.	.	.	.
.	.	1A	.	2c	.	.	.	.	.	.	.
2F#i	.	.	.	2d	.	.	.	.	.	.	.
=52	=52	=52	=52	=52	=52	=52	=52	=52	=52	=52	=52
1G	-[li]	2r	.	1B-y	.	2.d	et	0r	.	0r	.
.	.	2B-y	ter-	.	.	.	.	.	.	.	.
.	.	.	.	.	.	4e	.	.	.	.	.
2r	.	1c	.	2.A	ter-	4f	.	.	.	.	.
.	.	.	.	.	.	4g	.	.	.	.	.
[2F	et	.	.	.	.	[2a	.	.	.	.	.
.	.	.	.	4B-y	.	.	.	.	.	.	.
=53	=53	=53	=53	=53	=53	=53	=53	=53	=53	=53	=53
2F]	.	2A	.	4c	.	2a]	.	0r	.	0r	.
.	.	.	.	4d	.	.	.	.	.	.	.
2E	.	1c	.	2e	.	2g	.	.	.	.	.
2F	.	.	.	2A	.	2a	.	.	.	.	.
2G	.	2B-y	.	[2d	.	[2b-y	ter-	.	.	.	.
=54	=54	=54	=54	=54	=54	=54	=54	=54	=54	=54	=54
1E	.	2.G	.	2d]	.	2b-]	.	0r	.	0r	.
.	.	.	.	2c#i	.	4a	.	.	.	.	.
.	.	4A	.	.	.	4g	.	.	.	.	.
2.D	ter-	4B-y	.	1d	-ra	1f	-ra	.	.	.	.
.	.	4c	.	.	.	.	.	.	.	.	.
.	.	[2d	.	.	.	.	.	.	.	.	.
4E	.	.	.	.	.	.	.	.	.	.	.
=55	=55	=55	=55	=55	=55	=55	=55	=55	=55	=55	=55
4F	.	2d]	.	0r	.	0r	.	0r	.	1.a	glo-
4G	.	.	.	.	.	.	.	.	.	.	.
2A	.	2c#i	.	.	.	.	.	.	.	.	.
2D	.	1d	.	.	.	.	.	.	.	.	.
[2G	.	.	.	.	.	.	.	.	.	2g	.
=56	=56	=56	=56	=56	=56	=56	=56	=56	=56	=56	=56
2G]	.	1D	-ra,	0r	.	1.d	glo-	0r	.	1a	.
2F#i	.	.	.	.	.	.	.	.	.	.	.
1G	-ra	1r	.	.	.	.	.	.	.	1b-y	-ri-
.	.	.	.	.	.	2e	-ri-	.	.	.	.
=57	=57	=57	=57	=57	=57	=57	=57	=57	=57	=57	=57
0r	.	2.D	ter-	0r	.	2.f	-a	1.d	glo-	0a	-a
.	.	4E	.	.	.	4g	.	.	.	.	.
.	.	4F	.	.	.	4a	.	.	.	.	.
.	.	4G	.	.	.	4b-y	.	.	.	.	.
.	.	2A	.	.	.	[2cc	tu-	2c	.	.	.
=58	=58	=58	=58	=58	=58	=58	=58	=58	=58	=58	=58
0r	.	1B-y	.	0r	.	4cc]	.	1d	.	1.dd	tu-
.	.	.	.	.	.	4b-y	.	.	.	.	.
.	.	.	.	.	.	2.b-y	.	.	.	.	.
.	.	1c	.	.	.	.	.	1e	-ri-	.	.
.	.	.	.	.	.	4a	.	.	.	.	.
.	.	.	.	.	.	[2a	.	.	.	2cc	.
=59	=59	=59	=59	=59	=59	=59	=59	=59	=59	=59	=59
0r	.	1G	-ra]	0r	.	4a]	.	0d	-a	2b-y	.
.	.	.	.	.	.	4g	.	.	.	.	.
.	.	.	.	.	.	1g	.	.	.	4a	.
.	.	.	.	.	.	.	.	.	.	4g	.
.	.	1r	.	.	.	.	.	.	.	1a	.
.	.	.	.	.	.	2f	.	.	.	.	.
=60	=60	=60	=60	=60	=60	=60	=60	=60	=60	=60	=60
0r	.	2r	.	0r	.	2e	.	1.g	tu-	2.g	.
.	.	2.G	glo-	.	.	4d	.	.	.	.	.
.	.	.	.	.	.	4c	.	.	.	4a	.
.	.	.	.	.	.	1d	-a,	.	.	4b-y	.
.	.	4A	-ri-	.	.	.	.	.	.	4cc	.
.	.	2B-y	-a	.	.	.	.	2f	.	2dd	.
=61	=61	=61	=61	=61	=61	=61	=61	=61	=61	=61	=61
0r	.	4c	tu-	0r	.	2r	.	2e	.	2g	.
.	.	4B-y	.	.	.	.	.	.	.	.	.
.	.	4A	.	.	.	2e	[tu-	4d	.	2cc	.
.	.	4G	.	.	.	.	.	4c	.	.	.
.	.	2F	.	.	.	1f	.	1d	.	2.a	.
.	.	2D	.	.	.	.	.	.	.	.	.
.	.	.	.	.	.	.	.	.	.	4b-y	.
=62	=62	=62	=62	=62	=62	=62	=62	=62	=62	=62	=62
0r	.	1A	-a,	1.A	glo-	0e	-a,	2.c	.	2.cc	.
.	.	.	.	.	.	.	.	4d	.	4b-y	.
.	.	1r	.	.	.	.	.	4e	.	4cc	.
.	.	.	.	.	.	.	.	4f	.	4a	.
.	.	.	.	2G	.	.	.	2g	.	2b-y	.
=63	=63	=63	=63	=63	=63	=63	=63	=63	=63	=63	=63
0r	.	1r	.	1A	.	0r	.	2c	.	4cc	.
.	.	.	.	.	.	.	.	.	.	4b-y	.
.	.	.	.	.	.	.	.	2f	.	4a	.
.	.	.	.	.	.	.	.	.	.	4g	.
.	.	2r	.	1B-y	-ri-	.	.	2.d	.	2f	.
.	.	2G	[tu-	.	.	.	.	.	.	2g	.
.	.	.	.	.	.	.	.	4e	.	.	.
=64	=64	=64	=64	=64	=64	=64	=64	=64	=64	=64	=64
1.D	glo-	2.F	.	0A	-a	0r	.	2.f	.	1a	-a,
.	.	4G	.	.	.	.	.	4e	.	.	.
.	.	4A	.	.	.	.	.	4f	.	2r	.
.	.	4B-y	.	.	.	.	.	4d	.	.	.
2C	.	2c	.	.	.	.	.	2e	.	[2a	tu-
=65	=65	=65	=65	=65	=65	=65	=65	=65	=65	=65	=65
1D	-ri-	2F	.	1.d	tu-	0r	.	4f	.	2a]	.
.	.	.	.	.	.	.	.	4e	.	.	.
.	.	2.B-y	.	.	.	.	.	4d	.	4g	.
.	.	.	.	.	.	.	.	4c	.	4f	.
1E	-a	.	.	.	.	.	.	2B-y	.	2g	.
.	.	4A	.	.	.	.	.	.	.	.	.
.	.	2G	.	2c	.	.	.	2c	.	2e	.
=66	=66	=66	=66	=66	=66	=66	=66	=66	=66	=66	=66
0D	tu-	4F	.	2B-y	.	0r	.	[0dl	-a.	2f	.
.	.	4D	.	.	.	.	.	.	.	.	.
.	.	2.d	.	4A	.	.	.	.	.	1g	.
.	.	.	.	4G	.	.	.	.	.	.	.
.	.	.	.	1A	.	.	.	.	.	.	.
.	.	4c	.	.	.	.	.	.	.	.	.
.	.	2A	.	.	.	.	.	.	.	2f#i	.
=67	=67	=67	=67	=67	=67	=67	=67	=67	=67	=67	=67
00G	-a.	00B-y	-a].	00G	-a.	00d	a].	00d]	.	00g	-a.
=68||	=68||	=68||	=68||	=68||	=68||	=68||	=68||	=68||	=68||	=68||	=68||
*M3/1	*	*M3/1	*	*M3/1	*	*M3/1	*	*M3/1	*	*M3/1	*
*met(C|3)	*	*met(C|3)	*	*met(C|3)	*	*met(C|3)	*	*met(C|3)	*	*met(C|3)	*
!!section: Osanna
!!!OMD: Osanna
!LO:TX:a:t=Canon&colon; bassus/tenor I at the fifth	!	!	!	!	!	!	!	!LO:TX:a:t=Canon&colon; altus I/superius at the fifth	!	!	!
0.r	.	0c	O-	0.r	.	1r	.	1g	O-	0.r	.
.	.	.	.	.	.	1r	.	1a	.	.	.
.	.	1B-y	-san-	.	.	1d	O-	1b-y	.	.	.
=69	=69	=69	=69	=69	=69	=69	=69	=69	=69	=69	=69
0.r	.	1A	.	0.r	.	1.e	-san-	1.cc	-san-	0.r	.
.	.	0c	.	.	.	.	.	.	.	.	.
.	.	.	.	.	.	2d	.	2b-y	.	.	.
.	.	.	.	.	.	2e	.	1g	.	.	.
.	.	.	.	.	.	2f	.	.	.	.	.
=70	=70	=70	=70	=70	=70	=70	=70	=70	=70	=70	=70
0.r	.	1B-y	.	0.r	.	0g	.	1b-y	.	1dd	O-
.	.	1c	.	.	.	.	.	0a	.	1ee	.
.	.	1d	.	.	.	1f	.	.	.	1ff	.
=71	=71	=71	=71	=71	=71	=71	=71	=71	=71	=71	=71
0.r	.	0.G	-na,	0.r	.	1e	.	1g	.	1.gg	-sa-
.	.	.	.	.	.	1.d	.	1.b-y	.	.	.
.	.	.	.	.	.	.	.	.	.	2ff	.
.	.	.	.	.	.	.	.	.	.	1dd	.
.	.	.	.	.	.	2c	.	2a	.	.	.
=72	=72	=72	=72	=72	=72	=72	=72	=72	=72	=72	=72
0.r	.	1r	.	0.r	.	1d	.	1f	.	1ff	.
.	.	1r	.	.	.	1.e	.	1g	.	0ee	.
.	.	1c	[O-	.	.	.	.	1a	.	.	.
.	.	.	.	.	.	2f	.	.	.	.	.
=73	=73	=73	=73	=73	=73	=73	=73	=73	=73	=73	=73
0.r	.	0B-y	.	0.r	.	1g	.	1.b-y	.	1dd	.
.	.	.	.	.	.	1f	.	.	.	1.ff	.
.	.	.	.	.	.	.	.	2a	.	.	.
.	.	1B-y	-san-	.	.	1d	.	1f	.	.	.
.	.	.	.	.	.	.	.	.	.	2ee	.
=74	=74	=74	=74	=74	=74	=74	=74	=74	=74	=74	=74
0.r	.	1A	.	0.r	.	0f	.	1a	.	1cc	.
.	.	1B-y	.	.	.	.	.	0g	.	1dd	.
.	.	1c	.	.	.	1e	.	.	.	1ee	.
=75	=75	=75	=75	=75	=75	=75	=75	=75	=75	=75	=75
0.r	.	1.F	.	0.r	.	0.a	.	0f	-na,	1.ff	.
.	.	2G	.	.	.	.	.	.	.	2ee	.
.	.	2A	.	.	.	.	.	1r	.	1cc	.
.	.	2B-y	.	.	.	.	.	.	.	.	.
=76	=76	=76	=76	=76	=76	=76	=76	=76	=76	=76	=76
0.r	.	1c	.	0.r	.	1g	.	1e	[O-	1ee	.
.	.	1B-y	.	.	.	0b-y	.	1f	.	0dd	.
.	.	1G	.	.	.	.	.	1g	.	.	.
=77	=77	=77	=77	=77	=77	=77	=77	=77	=77	=77	=77
0.r	.	1A	.	0.r	.	0a	.	1.c	-san-	0cc	-na,
.	.	1.c	.	.	.	.	.	.	.	.	.
.	.	.	.	.	.	.	.	2d	.	.	.
.	.	.	.	.	.	[1g	.	2e	.	1r	.
.	.	2B-y	.	.	.	.	.	2f	.	.	.
=78	=78	=78	=78	=78	=78	=78	=78	=78	=78	=78	=78
1G	O-	1G	-na,	0.r	.	2g]	.	1g	-na,	1b-y	[O-
.	.	.	.	.	.	1e	.	.	.	.	.
1A	.	1r	.	.	.	.	.	1r	.	1cc	.
.	.	.	.	.	.	2f	.	.	.	.	.
1B-y	.	1r	.	.	.	1d	.	1f	O-	1dd	.
=79	=79	=79	=79	=79	=79	=79	=79	=79	=79	=79	=79
1.c	-san-	1r	.	0.r	.	2c	.	1e	-san-	1.g	-sa-
.	.	.	.	.	.	2d	.	.	.	.	.
.	.	1c	O-	.	.	2e	.	1.g	.	.	.
2B-y	.	.	.	.	.	2f	.	.	.	2a	.
1G	.	1d	.	.	.	1g	.	.	.	2b-y	.
.	.	.	.	.	.	.	.	2f	.	2cc	.
=80	=80	=80	=80	=80	=80	=80	=80	=80	=80	=80	=80
1B-y	.	1B-y	-san-	1d	O-	1f	.	1d	-na,	1dd	-na,
0A	.	0c	.	1e	.	0a	.	1r	.	1r	.
.	.	.	.	1f	.	.	.	1r	.	1cc	O-
=81	=81	=81	=81	=81	=81	=81	=81	=81	=81	=81	=81
1G	.	1d	.	1.g	-san-	1.b-y	.	0.r	.	1b-y	-san-
1.B-y	.	2G	.	.	.	.	.	.	.	1.dd	.
.	.	2A	.	2f	.	2a	.	.	.	.	.
.	.	2B-y	.	1d	.	1f	-na,	.	.	.	.
2A	.	2c	.	.	.	.	.	.	.	2cc	.
=82	=82	=82	=82	=82	=82	=82	=82	=82	=82	=82	=82
1F	.	1.d	.	1f	.	1r	.	0.r	.	1a	-na,
1G	.	.	.	0e	.	1b-y	[O-	.	.	1r	.
.	.	4c	.	.	.	.	.	.	.	.	.
.	.	4B-y	.	.	.	.	.	.	.	.	.
1A	.	1c	.	.	.	1a	.	.	.	1r	.
=83	=83	=83	=83	=83	=83	=83	=83	=83	=83	=83	=83
1.B-y	.	0d	.	1d	.	1f	-san-	1.f	O-	0.r	.
.	.	.	.	1.f	.	1b-y	.	.	.	.	.
2A	.	.	.	.	.	.	.	2g	.	.	.
1F	.	1c	.	.	.	1a	.	2a	.	.	.
.	.	.	.	2e	.	.	.	2b-y	.	.	.
=84	=84	=84	=84	=84	=84	=84	=84	=84	=84	=84	=84
1A	.	1A	.	1c	.	1f	-na,	1cc	-san-	1r	.
0G	.	0B-y	.	1d	.	0g	.	1b-y	.	1r	.
.	.	.	.	1e	.	.	.	1g	.	1r	.
=85	=85	=85	=85	=85	=85	=85	=85	=85	=85	=85	=85
0F	-na,	0.A	-na,	1.f	.	0.c	.	0.a	.	1.cc	O-
.	.	.	.	2e	.	.	.	.	.	2dd	.
1r	.	.	.	1c	.	.	.	.	.	2ee	.
.	.	.	.	.	.	.	.	.	.	2ff	.
=86	=86	=86	=86	=86	=86	=86	=86	=86	=86	=86	=86
1E	[O-	0.r	.	1e	.	0.r	.	1g	.	1gg	-sa-
1F	.	.	.	0d	.	.	.	1a	.	1ff	.
1G	.	.	.	.	.	.	.	1b-y	.	1dd	.
=87	=87	=87	=87	=87	=87	=87	=87	=87	=87	=87	=87
1.C	-san-	0.r	.	0c	-na,	0.r	.	1.cc	.	0.ee	.
2D	.	.	.	.	.	.	.	2b-y	.	.	.
2E	.	.	.	1r	.	.	.	1g	.	.	.
2F	.	.	.	.	.	.	.	.	.	.	.
=88	=88	=88	=88	=88	=88	=88	=88	=88	=88	=88	=88
1G	-na,	0.r	.	1B-y	[O-	0.r	.	1b-y	.	1dd	.
1r	.	.	.	1c	.	.	.	0a	.	1ee	.
1F	O-	.	.	1d	.	.	.	.	.	1ff	.
=89	=89	=89	=89	=89	=89	=89	=89	=89	=89	=89	=89
1E	-san-	0.r	.	1.G	-san-	1r	.	1g	.	1.gg	.
1.G	.	.	.	.	.	1r	.	1.b-y	.	.	.
.	.	.	.	2A	.	.	.	.	.	2ff	.
.	.	.	.	2B-y	.	1d	O-	.	.	1dd	.
2F	.	.	.	2c	.	.	.	2a	.	.	.
=90	=90	=90	=90	=90	=90	=90	=90	=90	=90	=90	=90
1D	-na,	1r	.	1d	-na,	1d	-san-	1f	.	1ff	.
1r	.	0C	O-	1r	.	1e	.	1g	.	0ee	.
1r	.	.	.	1c	O-	1c	.	1a	.	.	.
=91	=91	=91	=91	=91	=91	=91	=91	=91	=91	=91	=91
0.r	.	1G	-san-	1B-y	-san-	1.d	.	1.b-y	.	1dd	.
.	.	1.D	.	1.d	.	.	.	.	.	1.ff	.
.	.	.	.	.	.	2e	.	2a	.	.	.
.	.	.	.	.	.	[1f	.	1f	.	.	.
.	.	2E	.	2c	.	.	.	.	.	2ee	.
=92	=92	=92	=92	=92	=92	=92	=92	=92	=92	=92	=92
0.r	.	1F	.	1A	-na	2f]	.	1a	.	1cc	.
.	.	.	.	.	.	2e	.	.	.	.	.
.	.	1BB-y	.	1r	.	1d	.	0g	.	1dd	.
.	.	1C	.	1r	.	1c	.	.	.	1ee	.
=93	=93	=93	=93	=93	=93	=93	=93	=93	=93	=93	=93
1.F	O-	1.D	.	0.r	.	0A	.	0f	-na,	1.ff	.
2G	.	2E	.	.	.	.	.	.	.	2ee	.
2A	.	1F	.	.	.	1a	.	1r	.	1cc	.
2B-y	.	.	.	.	.	.	.	.	.	.	.
=94	=94	=94	=94	=94	=94	=94	=94	=94	=94	=94	=94
1c	-san-	1C	-na,	0.r	.	1g	.	1e	in	1ee	.
1B-y	.	1r	.	.	.	0b-y	.	1f	ex-	0dd	.
1G	.	1r	.	.	.	.	.	1g	-cel-	.	.
=95	=95	=95	=95	=95	=95	=95	=95	=95	=95	=95	=95
0.A	.	0.r	.	1.c	O-	1.a	.	0.c	-sis],	0cc	-na,
.	.	.	.	2d	.	2g	.	.	.	.	.
.	.	.	.	2e	.	1a	.	.	.	1r	.
.	.	.	.	2f	.	.	.	.	.	.	.
=96	=96	=96	=96	=96	=96	=96	=96	=96	=96	=96	=96
1G	.	0.r	.	1g	-san-	1d	-na]	0.r	.	1b-y	Ho-
1A	.	.	.	1f	.	1r	.	.	.	1cc	-san-
1B-y	.	.	.	1d	.	1r	.	.	.	1dd	.
=97	=97	=97	=97	=97	=97	=97	=97	=97	=97	=97	=97
1.c	.	1.C	Ho-	0.e	.	0.r	.	0.r	.	0.g	-na],
2B-y	.	2D	.	.	.	.	.	.	.	.	.
1G	.	2E	.	.	.	.	.	.	.	.	.
.	.	2F	.	.	.	.	.	.	.	.	.
=98	=98	=98	=98	=98	=98	=98	=98	=98	=98	=98	=98
1B-y	.	1G	-san-	1d	.	0.r	.	0.r	.	0.r	.
0A	.	1C	.	1e	.	.	.	.	.	.	.
.	.	1c	.	1f	.	.	.	.	.	.	.
=99	=99	=99	=99	=99	=99	=99	=99	=99	=99	=99	=99
1G	.	1B-y	.	1.g	.	1.d	in	0.r	.	0.r	.
1.B-y	.	1G	.	.	.	.	.	.	.	.	.
.	.	.	.	2f	.	2e	ex-	.	.	.	.
.	.	1d	.	1d	.	2f	-cel-	.	.	.	.
2A	.	.	.	.	.	2g	.	.	.	.	.
=100	=100	=100	=100	=100	=100	=100	=100	=100	=100	=100	=100
1F	.	1.d	.	1f	.	1a	.	0.r	.	0.r	.
1G	.	.	.	0e	.	1b-y	.	.	.	.	.
.	.	4c	.	.	.	.	.	.	.	.	.
.	.	4B-y	.	.	.	.	.	.	.	.	.
1A	.	1c	.	.	.	2a	.	.	.	.	.
.	.	.	.	.	.	2g	.	.	.	.	.
=101	=101	=101	=101	=101	=101	=101	=101	=101	=101	=101	=101
1.B-y	.	0d	.	1d	.	1.f	.	0.r	.	0.r	.
.	.	.	.	1.f	.	.	.	.	.	.	.
2A	.	.	.	.	.	2g	.	.	.	.	.
1F	.	1c	.	.	.	2a	.	.	.	.	.
.	.	.	.	2e	.	2b-y	.	.	.	.	.
=102	=102	=102	=102	=102	=102	=102	=102	=102	=102	=102	=102
1A	.	1A	.	1c	.	1cc	.	0.r	.	0.r	.
0G	.	0B-y	.	1d	.	1b-y	.	.	.	.	.
.	.	.	.	1e	.	1g	.	.	.	.	.
=103	=103	=103	=103	=103	=103	=103	=103	=103	=103	=103	=103
0F	-na]	1.c	.	1.f	.	1.a	.	0.r	.	0.r	.
.	.	2B-y	.	2e	.	2g	.	.	.	.	.
1r	.	1A	.	1c	.	2a	.	.	.	.	.
.	.	.	.	.	.	2b-y	.	.	.	.	.
=104	=104	=104	=104	=104	=104	=104	=104	=104	=104	=104	=104
1E	in	1G	.	1e	.	0cc	.	1r	.	0.r	.
1F	ex-	1A	.	0d	.	.	.	1r	.	.	.
1G	-cel-	1B-y	.	.	.	1b-y	.	1d	in	.	.
=105	=105	=105	=105	=105	=105	=105	=105	=105	=105	=105	=105
0.C	-sis,	[0.G	-na]	0c	-na]	1.cc	.	0e-X	ex-	0.r	.
.	.	.	.	.	.	2b-y	.	.	.	.	.
.	.	.	.	1r	.	1g	.	1e-i	-cel-	.	.
=106	=106	=106	=106	=106	=106	=106	=106	=106	=106	=106	=106
0.r	.	1G]	.	1B-y	in	1b-y	.	1.d	.	1r	.
.	.	1r	.	1c	ex-	0a	.	.	.	1r	.
.	.	.	.	.	.	.	.	2e	.	.	.
.	.	1r	.	1d	-cel-	.	.	1f	.	1a	O-
=107	=107	=107	=107	=107	=107	=107	=107	=107	=107	=107	=107
0.r	.	1d	in	0.G	-sis,	0.g	-sis,	1g	.	0b-y	-san-
.	.	1B-y	.	.	.	.	.	1d	.	.	.
.	.	1G	ex-	.	.	.	.	1e	.	1b-y	-na
=108	=108	=108	=108	=108	=108	=108	=108	=108	=108	=108	=108
0.r	.	1.d	-cel-	0.r	.	1r	.	0f	-[sis	1.a	in
.	.	.	.	.	.	1.f	[in	.	.	.	.
.	.	2c	.	.	.	.	.	.	.	2b-y	.
.	.	1A	.	.	.	.	.	1r	.	1cc	ex-
.	.	.	.	.	.	2e	ex-	.	.	.	.
=109	=109	=109	=109	=109	=109	=109	=109	=109	=109	=109	=109
0.r	.	1B-y	.	0.r	.	1d	-cel-	1.f	in	1dd	-cel-
.	.	1F	.	.	.	1c	.	.	.	1a	.
.	.	.	.	.	.	.	.	2e	ex-	.	.
.	.	1G	.	.	.	1g	.	1d	-cel-	1b-y	.
=110	=110	=110	=110	=110	=110	=110	=110	=110	=110	=110	=110
0.r	.	0A	.	0.r	.	1f	.	0c	.	0cc	-sis,
.	.	.	.	.	.	1.e	.	.	.	.	.
.	.	1G	.	.	.	.	.	1B-y	.	1r	.
.	.	.	.	.	.	2d	.	.	.	.	.
=111	=111	=111	=111	=111	=111	=111	=111	=111	=111	=111	=111
0.r	.	0.F	-[sis	0.r	.	1.a	.	1c	.	1.cc	[in
.	.	.	.	.	.	.	.	1.f	.	.	.
.	.	.	.	.	.	2b-y	.	.	.	2b-y	ex-
.	.	.	.	.	.	1cc	.	.	.	1a	-cel-
.	.	.	.	.	.	.	.	2e	.	.	.
=112	=112	=112	=112	=112	=112	=112	=112	=112	=112	=112	=112
0.r	.	0.r	.	0.r	.	1cc	.	1c	.	0g	.
.	.	.	.	.	.	2b-y	.	0d	.	.	.
.	.	.	.	.	.	2a	.	.	.	.	.
.	.	.	.	.	.	1b-y	.	.	.	1f	.
=113	=113	=113	=113	=113	=113	=113	=113	=113	=113	=113	=113
0.r	.	0.r	.	0.r	.	2cc	.	0c	-sis,	1g	.
.	.	.	.	.	.	2b-y	.	.	.	.	.
.	.	.	.	.	.	2a	.	.	.	1.cc	.
.	.	.	.	.	.	2g	.	.	.	.	.
.	.	.	.	.	.	2a	.	1c	in	.	.
.	.	.	.	.	.	2g	.	.	.	2b-y	.
=114	=114	=114	=114	=114	=114	=114	=114	=114	=114	=114	=114
1r	.	1r	.	0.r	.	1.g	.	1e	ex-	1g	.
1r	.	1r	.	.	.	.	.	0d	-cel-	0a	.
.	.	.	.	.	.	4f#i	.	.	.	.	.
.	.	.	.	.	.	4e	.	.	.	.	.
1D	[in	1d	in	.	.	1f#i	.	.	.	.	.
=115	=115	=115	=115	=115	=115	=115	=115	=115	=115	=115	=115
0E-X	ex-	1B-y	ex-	0.r	.	1g	-sis],	0g	-sis,	0g	-sis,
.	.	2G	-cel-	.	.	1r	.	.	.	.	.
.	.	2A	.	.	.	.	.	.	.	.	.
1E-i	-cel-	2B-y	.	.	.	1r	.	1r	.	1g	in
.	.	2c	.	.	.	.	.	.	.	.	.
=116	=116	=116	=116	=116	=116	=116	=116	=116	=116	=116	=116
1.D	.	0d	.	1r	.	0.r	.	0f	in	1b-y	ex-
.	.	.	.	1r	.	.	.	.	.	0a	-cel-
2E	.	.	.	.	.	.	.	.	.	.	.
1F	.	1c	.	1A	[in	.	.	1f	ex-	.	.
=117	=117	=117	=117	=117	=117	=117	=117	=117	=117	=117	=117
1G	.	1.B-y	.	0B-y	ex-	0.r	.	1d	-cel-	0dd	-sis],
1D	.	.	.	.	.	.	.	1f	.	.	.
.	.	2A	.	.	.	.	.	.	.	.	.
1E	.	1G	.	1B-y	-cel-	.	.	1g	.	1r	.
=118	=118	=118	=118	=118	=118	=118	=118	=118	=118	=118	=118
0F	-sis,	1F	-sis],	1.A	.	1.c	in	0a	.	0cc	in
.	.	1r	.	.	.	.	.	.	.	.	.
.	.	.	.	2B-y	.	2d	ex-	.	.	.	.
1r	.	1r	.	1c	.	1e	-cel-	1g	.	1cc	ex-
=119	=119	=119	=119	=119	=119	=119	=119	=119	=119	=119	=119
1.F	in	0.r	.	1d	.	1f	.	0f	.	1a	-cel-
.	.	.	.	1A	.	1e	.	.	.	1cc	.
2E	ex-	.	.	.	.	.	.	.	.	.	.
1D	-cel-	.	.	1B-y	.	1f	.	1b-y	.	1dd	.
=120	=120	=120	=120	=120	=120	=120	=120	=120	=120	=120	=120
0C	.	0.r	.	0c	-sis,	2e	.	1a	.	0ee	.
.	.	.	.	.	.	2f	.	.	.	.	.
.	.	.	.	.	.	2g	.	1g	.	.	.
.	.	.	.	.	.	2e	.	.	.	.	.
1BB-y	.	.	.	1r	.	1f	.	1b-y	.	1dd	.
=121	=121	=121	=121	=121	=121	=121	=121	=121	=121	=121	=121
1C	.	0.r	.	1.c	in	1e	.	2a	.	0cc	.
.	.	.	.	.	.	.	.	2g	.	.	.
1.F	.	.	.	.	.	1c	.	2f	.	.	.
.	.	.	.	2B-y	ex-	.	.	2e	.	.	.
.	.	.	.	1A	-cel-	1d	.	2d	.	1ff	.
2E	.	.	.	.	.	.	.	2c	.	.	.
=122	=122	=122	=122	=122	=122	=122	=122	=122	=122	=122	=122
1C	.	0.r	.	0G	.	1e	.	1.c	.	1ee	.
0D	.	.	.	.	.	1f	.	.	.	1dd	.
.	.	.	.	.	.	.	.	4B-y	.	.	.
.	.	.	.	.	.	.	.	4A	.	.	.
.	.	.	.	1F	.	1d	.	1B-y	.	1ff	.
=123	=123	=123	=123	=123	=123	=123	=123	=123	=123	=123	=123
0C	-sis,	0.r	.	1G	.	[0.e	.	1.c	.	2ee	.
.	.	.	.	.	.	.	.	.	.	2dd	.
.	.	.	.	1.c	.	.	.	.	.	2cc	.
.	.	.	.	.	.	.	.	2d	.	2b-y	.
1C	in	.	.	.	.	.	.	1e	.	2a	.
.	.	.	.	2B-y	.	.	.	.	.	2g	.
=124	=124	=124	=124	=124	=124	=124	=124	=124	=124	=124	=124
1E	ex-	1r	.	1G	.	1e]	.	1c	.	1.g	.
0D	-cel-	1r	.	0A	.	0f	.	0d	.	.	.
.	.	.	.	.	.	.	.	.	.	4f	.
.	.	.	.	.	.	.	.	.	.	4e	.
.	.	1A	in	.	.	.	.	.	.	1f	.
=125	=125	=125	=125	=125	=125	=125	=125	=125	=125	=125	=125
[0.Gl	-sis].	1.B-y	ex-	[0.Gl	-sis].	[0.dl	-sis.	[0.dl	-sis].	[0.gl	-sis.
.	.	2c	.	.	.	.	.	.	.	.	.
.	.	1d	-cel-	.	.	.	.	.	.	.	.
=126	=126	=126	=126	=126	=126	=126	=126	=126	=126	=126	=126
00G]	.	00B-yl	-sis.	00G]	.	00d]	.	00d]	.	00g]	.
=127||	=127||	=127||	=127||	=127||	=127||	=127||	=127||	=127||	=127||	=127||	=127||
*M2/1	*	*M2/1	*	*M2/1	*	*M2/1	*	*M2/1	*	*M2/1	*
*met(C|)	*	*met(C|)	*	*met(C|)	*	*met(C|)	*	*met(C|)	*	*met(C|)	*
!!section: Benedictus
!!!OMD: Benedictus
!	!	!	!	!LO:TX:a:t=Canon&colon; tenor I/bassus at the fifth	!	!	!	!	!	!	!
0r	.	0r	.	1G	Be-	0r	.	0r	.	0r	.
.	.	.	.	1B-y	-ne-	.	.	.	.	.	.
=128	=128	=128	=128	=128	=128	=128	=128	=128	=128	=128	=128
0r	.	0r	.	1c	-di-	0r	.	0r	.	0r	.
.	.	.	.	2.d	.	.	.	.	.	.	.
.	.	.	.	8cL	.	.	.	.	.	.	.
.	.	.	.	8B-yJ	.	.	.	.	.	.	.
=129	=129	=129	=129	=129	=129	=129	=129	=129	=129	=129	=129
1C	Be-	0r	.	4A	.	0r	.	0r	.	0r	.
.	.	.	.	4G	.	.	.	.	.	.	.
.	.	.	.	1c	.	.	.	.	.	.	.
1E	-ne-	.	.	.	.	.	.	.	.	.	.
.	.	.	.	2B-y	.	.	.	.	.	.	.
=130	=130	=130	=130	=130	=130	=130	=130	=130	=130	=130	=130
1F	-di-	0r	.	1A	.	0r	.	0r	.	0r	.
2.G	.	.	.	1G	-ctus,	.	.	.	.	.	.
8FL	.	.	.	.	.	.	.	.	.	.	.
8EJ	.	.	.	.	.	.	.	.	.	.	.
=131	=131	=131	=131	=131	=131	=131	=131	=131	=131	=131	=131
4D	.	0r	.	1r	.	0r	.	0r	.	0r	.
4C	.	.	.	.	.	.	.	.	.	.	.
1F	.	.	.	.	.	.	.	.	.	.	.
.	.	.	.	1c	[Be-	.	.	.	.	.	.
2E	.	.	.	.	.	.	.	.	.	.	.
=132	=132	=132	=132	=132	=132	=132	=132	=132	=132	=132	=132
1D	.	0r	.	1.f	-ne-	0r	.	0r	.	0r	.
1C	-ctus,	.	.	.	.	.	.	.	.	.	.
.	.	.	.	2e	.	.	.	.	.	.	.
=133	=133	=133	=133	=133	=133	=133	=133	=133	=133	=133	=133
1r	.	0r	.	1d	-di-	0r	.	0r	.	0r	.
1F	Be-	.	.	2c	.	.	.	.	.	.	.
.	.	.	.	[2f	.	.	.	.	.	.	.
=134	=134	=134	=134	=134	=134	=134	=134	=134	=134	=134	=134
1.B-y	-ne-	0r	.	4f]	.	0r	.	0r	.	0r	.
.	.	.	.	4e	.	.	.	.	.	.	.
.	.	.	.	4d	.	.	.	.	.	.	.
.	.	.	.	4c	.	.	.	.	.	.	.
.	.	.	.	2d	.	.	.	.	.	.	.
2A	.	.	.	2c	.	.	.	.	.	.	.
=135	=135	=135	=135	=135	=135	=135	=135	=135	=135	=135	=135
1G	-di-	0r	.	1B-y	-ctus]	0r	.	0r	.	0r	.
2F	.	.	.	2A	qui	.	.	.	.	.	.
[2B-y	.	.	.	[2d	ve-	.	.	.	.	.	.
=136	=136	=136	=136	=136	=136	=136	=136	=136	=136	=136	=136
4B-]	.	0r	.	4d]	.	0r	.	0r	.	0r	.
4A	.	.	.	4c	.	.	.	.	.	.	.
4G	.	.	.	2d	.	.	.	.	.	.	.
4F	.	.	.	.	.	.	.	.	.	.	.
2G	.	.	.	2e	.	.	.	.	.	.	.
2F	.	.	.	[2d	.	.	.	.	.	.	.
=137	=137	=137	=137	=137	=137	=137	=137	=137	=137	=137	=137
1E	-ctus	0r	.	2d]	.	0r	.	0r	.	0r	.
.	.	.	.	2c#i	.	.	.	.	.	.	.
2D	qui	.	.	[1d	-nit	.	.	.	.	.	.
[2G	ve-	.	.	.	.	.	.	.	.	.	.
=138	=138	=138	=138	=138	=138	=138	=138	=138	=138	=138	=138
4G]	.	0r	.	1d]	.	0r	.	0r	.	0r	.
4F	.	.	.	.	.	.	.	.	.	.	.
2G	.	.	.	.	.	.	.	.	.	.	.
2A	.	.	.	1r	.	.	.	.	.	.	.
[2G	.	.	.	.	.	.	.	.	.	.	.
=139	=139	=139	=139	=139	=139	=139	=139	=139	=139	=139	=139
2G]	.	0r	.	3%2d	in	0r	.	0r	.	0r	.
2F	.	.	.	.	.	.	.	.	.	.	.
.	.	.	.	3%2d	no-	.	.	.	.	.	.
[1G	-nit	.	.	.	.	.	.	.	.	.	.
.	.	.	.	3%2d	-mi-	.	.	.	.	.	.
=140	=140	=140	=140	=140	=140	=140	=140	=140	=140	=140	=140
1G]	.	0r	.	3%2e	-ne	0r	.	0r	.	0r	.
.	.	.	.	3%2.d	.	.	.	.	.	.	.
1r	.	.	.	.	.	.	.	.	.	.	.
.	.	.	.	3c	.	.	.	.	.	.	.
=141	=141	=141	=141	=141	=141	=141	=141	=141	=141	=141	=141
3%2G	in	0r	.	3B-y	.	0r	.	0r	.	0r	.
.	.	.	.	3A	.	.	.	.	.	.	.
3%2G	no-	.	.	3B-y	.	.	.	.	.	.	.
.	.	.	.	3c	.	.	.	.	.	.	.
3%2G	-mi-	.	.	3d	.	.	.	.	.	.	.
.	.	.	.	3e	.	.	.	.	.	.	.
=142	=142	=142	=142	=142	=142	=142	=142	=142	=142	=142	=142
3%2A	-ne	0r	.	3%2f	.	0r	.	0r	.	0r	.
3%2.G	.	.	.	3e	.	.	.	.	.	.	.
.	.	.	.	3d	.	.	.	.	.	.	.
.	.	.	.	3e	.	.	.	.	.	.	.
3F	.	.	.	3f	.	.	.	.	.	.	.
=143	=143	=143	=143	=143	=143	=143	=143	=143	=143	=143	=143
3E	.	0r	.	3%2.g	Do-	0r	.	0r	.	0r	.
3D	.	.	.	.	.	.	.	.	.	.	.
3E	.	.	.	.	.	.	.	.	.	.	.
3F	.	.	.	3f	.	.	.	.	.	.	.
3G	.	.	.	3%2e	-mi-	.	.	.	.	.	.
3A	.	.	.	.	.	.	.	.	.	.	.
=144	=144	=144	=144	=144	=144	=144	=144	=144	=144	=144	=144
3%2B-y	.	0r	.	1d	-ni,	0r	.	0r	.	0r	.
3A	.	.	.	.	.	.	.	.	.	.	.
3G	.	.	.	2r	.	.	.	.	.	.	.
3A	.	.	.	.	.	.	.	.	.	.	.
.	.	.	.	2f	[in	.	.	.	.	.	.
3B-y	.	.	.	.	.	.	.	.	.	.	.
=145	=145	=145	=145	=145	=145	=145	=145	=145	=145	=145	=145
3%2.c	Do-	0r	.	2e	no-	0r	.	0r	.	0r	.
.	.	.	.	1g	-mi-	.	.	.	.	.	.
3B-y	.	.	.	.	.	.	.	.	.	.	.
3%2A	-mi-	.	.	.	.	.	.	.	.	.	.
.	.	.	.	2f#i	-ne	.	.	.	.	.	.
=146	=146	=146	=146	=146	=146	=146	=146	=146	=146	=146	=146
1G	-ni,	0r	.	4g	Do-	0r	.	0r	.	0r	.
.	.	.	.	4f	.	.	.	.	.	.	.
.	.	.	.	4e	.	.	.	.	.	.	.
.	.	.	.	4d	.	.	.	.	.	.	.
2r	.	.	.	4e	.	.	.	.	.	.	.
.	.	.	.	4c	.	.	.	.	.	.	.
2B-y	in	.	.	4d	.	.	.	.	.	.	.
.	.	.	.	4e	.	.	.	.	.	.	.
=147	=147	=147	=147	=147	=147	=147	=147	=147	=147	=147	=147
2A	no-	0r	.	2f	.	0r	.	0r	.	0r	.
1c	-mi-	.	.	2e	.	.	.	.	.	.	.
.	.	.	.	1d	.	.	.	.	.	.	.
2BnXi	-ne	.	.	.	.	.	.	.	.	.	.
=148	=148	=148	=148	=148	=148	=148	=148	=148	=148	=148	=148
4c	Do-	0r	.	2.c	.	0r	.	0r	.	0r	.
4B-y	.	.	.	.	.	.	.	.	.	.	.
4A	.	.	.	.	.	.	.	.	.	.	.
4G	.	.	.	4B-y	.	.	.	.	.	.	.
4A	.	.	.	4c	.	.	.	.	.	.	.
4F	.	.	.	4d	.	.	.	.	.	.	.
4G	.	.	.	4e	.	.	.	.	.	.	.
4A	.	.	.	4c	.	.	.	.	.	.	.
=149	=149	=149	=149	=149	=149	=149	=149	=149	=149	=149	=149
2B-y	.	0r	.	2d	.	0r	.	0r	.	0r	.
2A	.	.	.	2c	.	.	.	.	.	.	.
1G	.	.	.	1B-y	.	.	.	.	.	.	.
=150	=150	=150	=150	=150	=150	=150	=150	=150	=150	=150	=150
2.F	.	0r	.	2A	.	0r	.	0r	.	0r	.
.	.	.	.	2c	.	.	.	.	.	.	.
4E	.	.	.	.	.	.	.	.	.	.	.
4F	.	.	.	4d	.	.	.	.	.	.	.
4G	.	.	.	4B-y	.	.	.	.	.	.	.
4A	.	.	.	4c	.	.	.	.	.	.	.
4F	.	.	.	4d	.	.	.	.	.	.	.
=151	=151	=151	=151	=151	=151	=151	=151	=151	=151	=151	=151
2G	.	0r	.	4e	.	0r	.	0r	.	0r	.
.	.	.	.	4d	.	.	.	.	.	.	.
2F	.	.	.	1d	.	.	.	.	.	.	.
1E	.	.	.	.	.	.	.	.	.	.	.
.	.	.	.	2c#i	.	.	.	.	.	.	.
=152	=152	=152	=152	=152	=152	=152	=152	=152	=152	=152	=152
2D	.	0r	.	2.d	-mi-	0r	.	0r	.	0r	.
2F	.	.	.	.	.	.	.	.	.	.	.
.	.	.	.	4c	.	.	.	.	.	.	.
4G	.	.	.	4B-y	.	.	.	.	.	.	.
4E	.	.	.	4c	.	.	.	.	.	.	.
4F	.	.	.	4d	.	.	.	.	.	.	.
4G	.	.	.	4B-y	.	.	.	.	.	.	.
=153	=153	=153	=153	=153	=153	=153	=153	=153	=153	=153	=153
4A	.	0r	.	4c	.	0r	.	0r	.	0r	.
4G	.	.	.	4B-y	.	.	.	.	.	.	.
1G	.	.	.	4A	.	.	.	.	.	.	.
.	.	.	.	4G	.	.	.	.	.	.	.
.	.	.	.	1A	.	.	.	.	.	.	.
2F#i	-mi-	.	.	.	.	.	.	.	.	.	.
=154	=154	=154	=154	=154	=154	=154	=154	=154	=154	=154	=154
00Gl	-ni.	00r	.	00Gl	-ni].	00r	.	00r	.	00r	.
==	==	==	==	==	==	==	==	==	==	==	==
*-	*-	*-	*-	*-	*-	*-	*-	*-	*-	*-	*-
!!!system-decoration: s1,s2,s3,s4,s5,s6
!!!YEM: This work is licensed under a Creative Commons Attribution-NonCommercial 4.0 International License
!!!RDF**kern: i = editorial accidental
!!!RDF**kern: l = terminal long
!!!ENC: Vincent Besson, Marco Gurrieri, and Richard Freedman
!!!END: 2025/3/14
!!!EED: Benjamin Ory
!!!EEV: 2025/11/20
!!!YEC: Copyright 2025 Citations: The Renaissance Imitation Mass Project, All Rights Reserved
!!!ONB: Translated from MusicXML on 2025/3/14
!!!verovio: header encoded
!!!header-left: Edited by @{ENC} (2025)\n Citations: The Renaissance Imitation Mass Project \n
!!!header-right:
!!!header-center:
